client/public/img/game/birthday/obstacles/hazel_crate.svg

<?xml version="1.0" encoding="UTF-8" standalone="no"?>
<!-- Created with Inkscape (http://www.inkscape.org/) -->

<svg
   width="185"
   height="185"
   viewBox="0 0 48.947917 48.947917"
   version="1.1"
   id="svg5"
   xml:space="preserve"
   xmlns="http://www.w3.org/2000/svg"
   xmlns:svg="http://www.w3.org/2000/svg"><defs
     id="defs2"><clipPath
       id="b"><circle
         cy="-15"
         r="9.5"
         id="circle900"
         cx="0" /><circle
         cy="-15"
         r="9.5"
         transform="rotate(120)"
         id="circle902"
         cx="0" /><circle
         cy="-15"
         r="9.5"
         transform="rotate(-120)"
         id="circle904"
         cx="0" /></clipPath><mask
       id="a"
       width="60"
       height="60"
       x="-30"
       y="-30"
       maskUnits="userSpaceOnUse"><path
         fill="#ffffff"
         d="M -27,-27 H 27 V 27 H -27 Z"
         id="path907" /><path
         d="m 2,-23 v -4 h -4 v 4 m 1.5,17 v 4 h 1 v -4"
         id="path909" /><circle
         cy="-15"
         r="10.5"
         id="circle911"
         cx="0" /><g
         transform="rotate(120)"
         id="g917"><path
           d="m 2,-23 v -4 h -4 v 4 m 1.5,17 v 4 h 1 v -4"
           id="path913" /><circle
           cy="-15"
           r="10.5"
           id="circle915"
           cx="0" /></g><g
         transform="rotate(-120)"
         id="g923"><path
           d="m 2,-23 v -4 h -4 v 4 m 1.5,17 v 4 h 1 v -4"
           id="path919" /><circle
           cy="-15"
           r="10.5"
           id="circle921"
           cx="0" /></g><circle
         r="3"
         id="circle925"
         cx="0"
         cy="0" /></mask></defs><g
     id="layer1"><rect
       style="fill:#d96300;fill-opacity:1;stroke:none;stroke-width:1.5658;stroke-linecap:butt;stroke-linejoin:miter;stroke-miterlimit:4;stroke-dasharray:none;stroke-opacity:1"
       id="rect4220"
       width="33.151886"
       height="33.151886"
       x="7.8470125"
       y="7.8470125" /><path
       id="rect938"
       style="fill:#6ba371;fill-opacity:1;stroke-width:0;stroke-linecap:round"
       d="M 0.98120935,0.98121161 V 47.966706 H 47.966708 V 0.98121161 Z M 8.9084276,8.90843 H 40.039488 V 40.039488 H 8.9084276 Z" /><rect
       style="fill:none;fill-opacity:1;stroke:none;stroke-width:1.96165;stroke-linecap:butt;stroke-linejoin:bevel;stroke-miterlimit:4;stroke-dasharray:none;stroke-opacity:1"
       id="rect2620"
       width="33.151886"
       height="33.151886"
       x="7.8470125"
       y="7.8470125" /><rect
       style="fill:#383838;fill-opacity:1;stroke:#2b452e;stroke-width:1.96165;stroke-linecap:butt;stroke-linejoin:miter;stroke-miterlimit:4;stroke-dasharray:none;stroke-opacity:1"
       id="rect3681-5"
       width="31.131674"
       height="31.131672"
       x="8.9081221"
       y="8.908123" /><rect
       style="fill:none;fill-opacity:1;stroke:#2b452e;stroke-width:1.96165;stroke-linecap:round;stroke-linejoin:round;stroke-miterlimit:4;stroke-dasharray:none;stroke-opacity:1"
       id="rect2330"
       width="46.986267"
       height="46.986267"
       x="0.98082507"
       y="0.98082507" /><path
       style="fill:none;stroke:#2b452e;stroke-width:1.96165;stroke-linecap:butt;stroke-linejoin:miter;stroke-miterlimit:4;stroke-dasharray:none;stroke-opacity:1"
       d="m 40.039794,8.9081228 h 7.8466"
       id="path5886" /><path
       style="fill:none;stroke:#2b452e;stroke-width:1.96165;stroke-linecap:butt;stroke-linejoin:miter;stroke-miterlimit:4;stroke-dasharray:none;stroke-opacity:1"
       d="m 40.039794,40.039794 h 7.8466"
       id="path5886-3" /><path
       style="fill:none;stroke:#2b452e;stroke-width:1.96165;stroke-linecap:butt;stroke-linejoin:miter;stroke-miterlimit:4;stroke-dasharray:none;stroke-opacity:1"
       d="M 1.0615177,40.039794 H 8.9081181"
       id="path5886-6" /><path
       style="fill:none;stroke:#2b452e;stroke-width:1.96165;stroke-linecap:butt;stroke-linejoin:miter;stroke-miterlimit:4;stroke-dasharray:none;stroke-opacity:1"
       d="M 1.0615177,8.9081228 H 8.9081181"
       id="path5886-7" /><g
       id="g958"
       transform="matrix(0.5474103,0,0,0.5474103,21.882622,24.453747)"
       style="fill:#639e69;fill-opacity:1"><g
         id="g2312"
         transform="matrix(0.95833334,0,0,0.95833334,0.90047659,-1.8798139)"
         style="fill:#639e69;fill-opacity:1"><g
           mask="url(#a)"
           id="g936"
           style="fill:#639e69;fill-opacity:1;stroke:none;stroke-opacity:1"
           transform="matrix(0.97854222,0,0,0.97853768,4,4.6909786)"><circle
             cy="-11"
             r="15"
             id="circle930"
             style="fill:#6ba371;fill-opacity:1;stroke:none;stroke-opacity:1"
             cx="0" /><circle
             cy="-11"
             r="15"
             transform="rotate(120)"
             id="circle932"
             style="fill:#6ba371;fill-opacity:1;stroke:none;stroke-opacity:1"
             cx="0" /><circle
             cy="-11"
             r="15"
             transform="rotate(-120)"
             id="circle934"
             style="fill:#6ba371;fill-opacity:1;stroke:none;stroke-opacity:1"
             cx="0" /></g><circle
           r="11.75"
           fill="none"
           stroke="#000"
           stroke-width="3.5"
           clip-path="url(#b)"
           id="circle938"
           style="fill:none;fill-opacity:1;stroke:#446e49;stroke-opacity:1"
           cx="0"
           cy="0"
           transform="matrix(0.97854222,0,0,0.97853768,4,4.6909786)" /></g></g><g
       id="g1"><path
         id="rect1"
         style="fill:#a48642;fill-opacity:1;fill-rule:evenodd;stroke:#5b4a24;stroke-width:1.96162;stroke-linecap:square;stroke-opacity:1"
         d="M 0.98081005,0.98081005 H 13.416227 V 4.94956 8.91831 L 9.271088,12.88706 H 5.125949 0.98081005 Z" /><circle
         style="fill:#be9e54;fill-opacity:1;stroke:#5b4a24;stroke-width:0.980823;stroke-linecap:round;stroke-linejoin:round;stroke-opacity:1"
         id="path851"
         cx="7.1985188"
         cy="6.9339352"
         r="1.6222014" /></g><g
       id="g2"
       transform="rotate(90,24.473959,24.473958)"><path
         id="rect1-7"
         style="fill:#a48642;fill-opacity:1;fill-rule:evenodd;stroke:#5b4a24;stroke-width:1.96162;stroke-linecap:square;stroke-opacity:1"
         d="M 0.98081005,0.98081005 H 13.416227 V 4.94956 8.91831 L 9.271088,12.88706 H 5.125949 0.98081005 Z" /><circle
         style="fill:#be9e54;fill-opacity:1;stroke:#5b4a24;stroke-width:0.980823;stroke-linecap:round;stroke-linejoin:round;stroke-opacity:1"
         id="path851-9"
         cx="7.1985188"
         cy="6.9339352"
         r="1.6222014" /></g><g
       id="g2-1"
       transform="rotate(-90,24.473959,24.473959)"><path
         id="rect1-6"
         style="fill:#a48642;fill-opacity:1;fill-rule:evenodd;stroke:#5b4a24;stroke-width:1.96162;stroke-linecap:square;stroke-opacity:1"
         d="M 0.98081005,0.98081005 H 13.416227 V 4.94956 8.91831 L 9.271088,12.88706 H 5.125949 0.98081005 Z" /><circle
         style="fill:#be9e54;fill-opacity:1;stroke:#5b4a24;stroke-width:0.980823;stroke-linecap:round;stroke-linejoin:round;stroke-opacity:1"
         id="path851-1"
         cx="7.1985188"
         cy="6.9339352"
         r="1.6222014" /></g><g
       id="g2-0"
       transform="rotate(180,24.473959,24.473959)"><path
         id="rect1-4"
         style="fill:#a48642;fill-opacity:1;fill-rule:evenodd;stroke:#5b4a24;stroke-width:1.96162;stroke-linecap:square;stroke-opacity:1"
         d="M 0.98081005,0.98081005 H 13.416227 V 4.94956 8.91831 L 9.271088,12.88706 H 5.125949 0.98081005 Z" /><circle
         style="fill:#be9e54;fill-opacity:1;stroke:#5b4a24;stroke-width:0.980823;stroke-linecap:round;stroke-linejoin:round;stroke-opacity:1"
         id="path851-4"
         cx="7.1985188"
         cy="6.9339352"
         r="1.6222014" /></g></g></svg>

<svg xmlns="http://www.w3.org/2000/svg" xml:space="preserve" width="185" height="185" viewBox="0 0 48.948 48.948"><defs><clipPath id="b"><circle cy="-15" r="9.5"/><circle cy="-15" r="9.5" transform="rotate(120)"/><circle cy="-15" r="9.5" transform="rotate(-120)"/></clipPath><mask id="a" width="60" height="60" x="-30" y="-30" maskUnits="userSpaceOnUse"><path fill="#fff" d="M-27-27h54v54h-54Z"/><path d="M2-23v-4h-4v4M-.5-6v4h1v-4"/><circle cy="-15" r="10.5"/><g transform="rotate(120)"><path d="M2-23v-4h-4v4M-.5-6v4h1v-4"/><circle cy="-15" r="10.5"/></g><g transform="rotate(-120)"><path d="M2-23v-4h-4v4M-.5-6v4h1v-4"/><circle cy="-15" r="10.5"/></g><circle r="3"/></mask></defs><path d="M7.847 7.847h33.152v33.152H7.847z" style="fill:#d96300;fill-opacity:1;stroke:none;stroke-width:1.5658;stroke-linecap:butt;stroke-linejoin:miter;stroke-miterlimit:4;stroke-dasharray:none;stroke-opacity:1"/><path d="M.981.981v46.986h46.986V.98Zm7.927 7.927H40.04V40.04H8.91Z" style="fill:#6ba371;fill-opacity:1;stroke-width:0;stroke-linecap:round"/><path d="M7.847 7.847h33.152v33.152H7.847z" style="fill:none;fill-opacity:1;stroke:none;stroke-width:1.96165;stroke-linecap:butt;stroke-linejoin:bevel;stroke-miterlimit:4;stroke-dasharray:none;stroke-opacity:1"/><path d="M8.908 8.908H40.04V40.04H8.908z" style="fill:#383838;fill-opacity:1;stroke:#2b452e;stroke-width:1.96165;stroke-linecap:butt;stroke-linejoin:miter;stroke-miterlimit:4;stroke-dasharray:none;stroke-opacity:1"/><path d="M.981.981h46.986v46.986H.981z" style="fill:none;fill-opacity:1;stroke:#2b452e;stroke-width:1.96165;stroke-linecap:round;stroke-linejoin:round;stroke-miterlimit:4;stroke-dasharray:none;stroke-opacity:1"/><path d="M40.04 8.908h7.846M40.04 40.04h7.846M1.062 40.04h7.846M1.062 8.908h7.846" style="fill:none;stroke:#2b452e;stroke-width:1.96165;stroke-linecap:butt;stroke-linejoin:miter;stroke-miterlimit:4;stroke-dasharray:none;stroke-opacity:1"/><g style="fill:#639e69;fill-opacity:1" transform="matrix(.51334 0 0 .51334 24.474 25.886)"><g mask="url(#a)" style="fill:#639e69;fill-opacity:1;stroke:none;stroke-opacity:1"><circle cy="-11" r="15" style="fill:#6ba371;fill-opacity:1;stroke:none;stroke-opacity:1"/><circle cy="-11" r="15" style="fill:#6ba371;fill-opacity:1;stroke:none;stroke-opacity:1" transform="rotate(120)"/><circle cy="-11" r="15" style="fill:#6ba371;fill-opacity:1;stroke:none;stroke-opacity:1" transform="rotate(-120)"/></g><circle r="11.75" fill="none" stroke="#000" stroke-width="3.5" clip-path="url(#b)" style="fill:none;fill-opacity:1;stroke:#446e49;stroke-opacity:1"/></g><path d="M.98.98h12.436v7.938l-4.145 3.97H.981Z" style="fill:#a48642;fill-opacity:1;fill-rule:evenodd;stroke:#5b4a24;stroke-width:1.96162;stroke-linecap:square;stroke-opacity:1"/><circle cx="7.199" cy="6.934" r="1.622" style="fill:#be9e54;fill-opacity:1;stroke:#5b4a24;stroke-width:.980823;stroke-linecap:round;stroke-linejoin:round;stroke-opacity:1"/><g transform="rotate(90 24.474 24.474)"><path d="M.98.98h12.436v7.938l-4.145 3.97H.981Z" style="fill:#a48642;fill-opacity:1;fill-rule:evenodd;stroke:#5b4a24;stroke-width:1.96162;stroke-linecap:square;stroke-opacity:1"/><circle cx="7.199" cy="6.934" r="1.622" style="fill:#be9e54;fill-opacity:1;stroke:#5b4a24;stroke-width:.980823;stroke-linecap:round;stroke-linejoin:round;stroke-opacity:1"/></g><g transform="rotate(-90 24.474 24.474)"><path d="M.98.98h12.436v7.938l-4.145 3.97H.981Z" style="fill:#a48642;fill-opacity:1;fill-rule:evenodd;stroke:#5b4a24;stroke-width:1.96162;stroke-linecap:square;stroke-opacity:1"/><circle cx="7.199" cy="6.934" r="1.622" style="fill:#be9e54;fill-opacity:1;stroke:#5b4a24;stroke-width:.980823;stroke-linecap:round;stroke-linejoin:round;stroke-opacity:1"/></g><g transform="rotate(180 24.474 24.474)"><path d="M.98.98h12.436v7.938l-4.145 3.97H.981Z" style="fill:#a48642;fill-opacity:1;fill-rule:evenodd;stroke:#5b4a24;stroke-width:1.96162;stroke-linecap:square;stroke-opacity:1"/><circle cx="7.199" cy="6.934" r="1.622" style="fill:#be9e54;fill-opacity:1;stroke:#5b4a24;stroke-width:.980823;stroke-linecap:round;stroke-linejoin:round;stroke-opacity:1"/></g></svg>
